X:1
T:Grace Greater than Our Sin
T:Text: Julia H. Johnston (1849-1919) Tune: Daniel B. Towner (1850-1919)
T:99 99 Refrain MOODY www.hymnary.org/text/marvelous_grace_of_our_loving_lord
T:Grace Greater than Our Sin
T:This hymn is in the public domain.  You may freely use this score for personal and congregational worship.  If you reproduce the score, please credit Hymnary.org as the source. 
T:This hymn is in the public domain.  You may freely use this score for personal and congregational worship.  If you reproduce the score, please credit Hymnary.org as the source. 
Z:This hymn is in the public domain.  You may freely use this score for personal and congregational worship.  If you reproduce the score, please credit Hymnary.org as the source.
%%score ( 1 2 ) ( 3 4 )
L:1/8
M:3/4
K:G
V:1 treble nm="Piano" snm="Pno."
V:2 treble 
V:3 bass nm="Piano" snm="Pno."
V:4 bass 
V:1
 [DG]3 [DF] [DG]2 | [FA]2 [EG]2 [DA]2 | [DB]4 [DA]2 | [DG]6 | [DF]2 [DF]2 [DG]2 | [FA]4 [DF]2 | %6
w: 3~Mar- ve- lous,|in- fi- nite,|match- less|grace,|free- ly bes-|towed on|
w: 1~Mar- ve- lous|grace of our|lo- ving|Lord,|grace that ex-|ceeds our|
w: 2~Dark is the|stain that we|can- not|hide;|what can a-|vail to|
 [DG]2 [DG]2 [DA]2 | [GB]6 | [DG]3 [DF] [DG]2 | [FA]2 [EG]2 [DA]2 | [DB]4 [FA]2 | [EG]6 | %12
w: all who be-|lieve:|you that are|long- ing to|see his|face,|
w: sin and our|guilt,|yon- der on|Cal- va- ry's|mount out-|poured,|
w: wash it a-|way?|Look! there is|flo- wing a|crim- son|tide;|
 [EA]3 [EA] [GB]2 | [Gc]2 [GB]2 [EA]2 | [DG]4 [DF]2 | [DG]6 ||"^Refrain" B6 | [DG]6 | c6 | [GB]6 | %20
w: will you this|mo- ment his|grace re-|ceive?|Grace,|grace,|God's|grace,|
w: there where the|blood of the|Lamb was|spilt.|||||
w: whi- ter than|snow you may|be to-|day.|||||
 [FA]3 [FA] [FA]2 | [FA]2 [FB]2 [DA]2 | [DG]4 [Gc]2 | [GB]6 | B6 | [DG]6 | c6 | [GB]6 | %28
w: grace that will|par- don and|cleanse with-|in;|grace,|grace,|God's|grace,|
w: ||||||||
w: ||||||||
 [EA]3 [EA] [GB]2 | [Gc]2 [GB]2 [EA]2 | [DG]4 [DF]2 | [DG]6 |] %32
w: grace that is|grea- ter than|all our|sin.|
w: ||||
w: ||||
V:2
 x6 | x6 | x6 | x6 | x6 | x6 | x6 | x6 | x6 | x6 | x6 | x6 | x6 | x6 | x6 | x6 || G3 G G2 | x6 | %18
 G3 G G2 | x6 | x6 | x6 | x6 | x6 | G3 G G2 | x6 | G3 G G2 | x6 | x6 | x6 | x6 | x6 |] %32
V:3
 [G,B,]3 A, [G,B,]2 | [D,C]2 [E,B,]2 [F,A,]2 | G,4 [D,C]2 | [G,B,]6 | [D,A,]2 [D,A,]2 [D,B,]2 | %5
 [D,C]4 [D,A,]2 | [G,B,]2 [G,B,]2 [G,C]2 | [G,D]6 | [G,B,]3 A, [G,B,]2 | [D,C]2 [E,B,]2 [F,A,]2 | %10
 G,4 [D,C]2 | [E,B,]6 | [C,C]3 [C,C] [B,,D]2 | [A,,E]2 [B,,D]2 [C,C]2 | [D,B,]4 [D,A,]2 | %15
 [G,B,]6 || D6 | B,6 | E6 | D6 | [D,C]3 [D,C] [D,C]2 | [D,C]2 [D,D]2 [D,C]2 | [G,B,]4 [G,E]2 | %23
 [G,D]6 | D6 | B,6 | E6 | D6 | [C,C]3 [C,C] [B,,D]2 | [A,,E]2 [B,,D]2 [C,C]2 | [D,B,]4 [D,A,]2 | %31
 [G,B,]6 |] %32
V:4
 x3 G, x2 | x6 | G,4 x2 | x6 | x6 | x6 | x6 | x6 | x3 G, x2 | x6 | G,4 x2 | x6 | x6 | x6 | x6 | %15
w: |||||||||||||||
 x6 || G,3 G, G,2 | G,6 | G,3 G, G,2 | G,6 | x6 | x6 | x6 | x6 | G,3 G, G,2 | G,6 | G,3 G, G,2 | %27
w: |Mar- vel- ous|grace,|in- fi- nite|grace,|||||mar- vel- ous|grace,|in- fi- nite|
 G,6 | x6 | x6 | x6 | x6 |] %32
w: grace,|||||

